X:260
T:Election tune
A:Wyresdale, Lancashire
B:E and J Winder, 1835-41
L:1/8
M:6/8
O:England
Z:Richard Robinson 
%%TUNEURL: http://www.leeds.ac.uk/music/Info/RRTuneBk/gettune/000005ab.html
%%ID:000005ab
K:C
c2e e3 | d2f f3 | e2c cBc | dBG G3 | \
c2e e3 | d2f f3 | edc dcB | c3 c2 ::
GAG E2F | G2B c3 | GAG EFG | AFD D3 | \
GAG E2F | G2g g2f | edc dcB | c3 c2:|
